src/assets/images/strength.svg

<svg fill="#000000" xmlns="http://www.w3.org/2000/svg"  viewBox="0 0 50 50" width="50px" height="50px"><path d="M 24.984375 3.9863281 A 1.0001 1.0001 0 0 0 24 5 L 24 11 A 1.0001 1.0001 0 1 0 26 11 L 26 5 A 1.0001 1.0001 0 0 0 24.984375 3.9863281 z M 16 4.9863281 A 1.0001 1.0001 0 0 0 15.072266 6.3710938 L 17.072266 11.371094 A 1.0001 1.0001 0 1 0 18.927734 10.628906 L 16.927734 5.6289062 A 1.0001 1.0001 0 0 0 16 4.9863281 z M 33.970703 4.9882812 A 1.0001 1.0001 0 0 0 33.072266 5.6289062 L 31.072266 10.628906 A 1.0001 1.0001 0 1 0 32.927734 11.371094 L 34.927734 6.3710938 A 1.0001 1.0001 0 0 0 33.970703 4.9882812 z M 10 11 C 8.895 11 8 11.895 8 13 L 8 35 C 8 36.105 8.895 37 10 37 C 11.105 37 12 36.105 12 35 L 12 26 L 15 26 L 17 26 L 17 22 L 12 22 L 12 13 C 12 11.895 11.105 11 10 11 z M 41 11 C 39.895 11 39 11.895 39 13 L 39 22 L 35 22 L 35 26 L 39 26 L 39 35 C 39 36.105 39.895 37 41 37 C 42.105 37 43 36.105 43 35 L 43 13 C 43 11.895 42.105 11 41 11 z M 4 15 C 2.895 15 2 15.895 2 17 L 2 31 C 2 32.105 2.895 33 4 33 C 5.105 33 6 32.105 6 31 L 6 17 C 6 15.895 5.105 15 4 15 z M 24 15 C 22.895 15 22 15.895 22 17 L 22 18 C 22 16.895 21.105 16 20 16 C 18.895 16 18 16.895 18 18 L 18 18.5 L 18 22 L 18 27.5 C 18 27.776 17.776 28 17.5 28 C 17.224 28 17 27.777 17 27.5 L 17 27 L 15.013672 27 C 15.148672 29.335 16.912 33.276047 20 33.873047 L 19 46 L 32 46 L 31 33.667969 C 32.754 32.981969 34 30.285062 34 28.289062 L 34 26 L 34 22 L 34 19.5 L 34 19 C 34 17.895 33.105 17 32 17 C 30.895 17 30 17.895 30 19 L 30 18 C 30 16.895 29.105 16 28 16 C 26.895 16 26 16.895 26 18 L 26 17 C 26 15.895 25.105 15 24 15 z M 47 15 C 45.895 15 45 15.895 45 17 L 45 31 C 45 32.105 45.895 33 47 33 C 48.105 33 49 32.105 49 31 L 49 17 C 49 15.895 48.105 15 47 15 z"/></svg>

<?xml version="1.0" encoding="utf-8"?>
<!-- Generator: Adobe Illustrator 26.2.1, SVG Export Plug-In . SVG Version: 6.00 Build 0)  -->
<svg version="1.1" id="Calque_1" xmlns="http://www.w3.org/2000/svg" xmlns:xlink="http://www.w3.org/1999/xlink" x="0px" y="0px"
	 viewBox="0 0 50 50" style="enable-background:new 0 0 50 50;" xml:space="preserve">
<style type="text/css">
	.st0{fill:#BEF264;}
</style>
<path class="st0" d="M25,4c-0.6,0-1,0.5-1,1v6c0,0.6,0.4,1,1,1c0.6,0,1-0.4,1-1c0,0,0,0,0,0V5C26,4.4,25.6,4,25,4C25,4,25,4,25,4z
	 M16,5c-0.6,0-1,0.4-1,1c0,0.1,0,0.3,0.1,0.4l2,5c0.2,0.5,0.8,0.8,1.3,0.6s0.8-0.8,0.6-1.3c0,0,0-0.1,0-0.1l-2-5
	C16.8,5.2,16.4,5,16,5z M34,5c-0.4,0-0.8,0.3-0.9,0.6l-2,5c-0.2,0.5,0,1.1,0.5,1.3s1.1,0,1.3-0.5c0,0,0-0.1,0-0.1l2-5
	c0.2-0.5,0-1.1-0.5-1.3C34.3,5,34.1,5,34,5z M10,11c-1.1,0-2,0.9-2,2v22c0,1.1,0.9,2,2,2s2-0.9,2-2v-9h3h2v-4h-5v-9
	C12,11.9,11.1,11,10,11z M41,11c-1.1,0-2,0.9-2,2v9h-4v4h4v9c0,1.1,0.9,2,2,2s2-0.9,2-2V13C43,11.9,42.1,11,41,11z M4,15
	c-1.1,0-2,0.9-2,2v14c0,1.1,0.9,2,2,2s2-0.9,2-2V17C6,15.9,5.1,15,4,15z M24,15c-1.1,0-2,0.9-2,2v1c0-1.1-0.9-2-2-2s-2,0.9-2,2v0.5
	V22v5.5c0,0.3-0.2,0.5-0.5,0.5S17,27.8,17,27.5V27h-2c0.1,2.3,1.9,6.3,5,6.9L19,46h13l-1-12.3c1.8-0.7,3-3.4,3-5.4V26v-4v-2.5V19
	c0-1.1-0.9-2-2-2s-2,0.9-2,2v-1c0-1.1-0.9-2-2-2s-2,0.9-2,2v-1C26,15.9,25.1,15,24,15z M47,15c-1.1,0-2,0.9-2,2v14c0,1.1,0.9,2,2,2
	s2-0.9,2-2V17C49,15.9,48.1,15,47,15z"/>
</svg>
